suite-common/icons/assets/icons/coinFilled.svg

<svg xmlns="http://www.w3.org/2000/svg" viewBox="0 0 30 28">
  <path fill-rule="evenodd" d="M16.25 4.884c-2.9.375-5.981 1.363-8.081 2.591C5.538 9.013 4 10.934 4 12.681c0 .476.098.889.769 3.248.464 1.632.683 2.299.844 2.571.74 1.248 2.627 2.114 4.921 2.259 1.039.066 2.842-.012 3.691-.16 3.256-.568 6.232-1.708 8.313-3.184 1.304-.925 2.387-2.15 2.763-3.126.316-.818.366-1.275.224-2.026-.144-.755-1.277-4.666-1.455-5.021-.521-1.037-1.915-1.872-3.751-2.247-.489-.1-.713-.112-2.219-.122-.921-.007-1.754-.002-1.85.011m7.568 6.753c.257.898.314 1.29.237 1.634-.078.35-.336.865-.622 1.243-.289.383-.779.936-.829.936-.022 0-.213-.608-.425-1.35l-.386-1.351.166-.136c.341-.28.815-.752 1.205-1.202.222-.255.42-.446.441-.425.02.021.116.314.213.651m-2.938 3.429c.31 1.088.369 1.35.319 1.411-.199.239-1.629.968-2.829 1.441-.835.33-1.151.422-1.216.355-.053-.054-.743-2.454-.765-2.658-.013-.122.014-.144.311-.256 1.498-.567 2.897-1.191 3.525-1.572.11-.067.217-.107.238-.089s.208.634.417 1.368m-13.974.909c.297.096.839.234 1.205.306.365.073.669.136.675.141.016.013.431 1.46.611 2.135l.149.554-.223-.034c-.225-.033-.883-.246-1.245-.402-.457-.196-.922-.568-1.158-.925-.084-.128-.62-1.798-.62-1.933 0-.034.074-.014.606.158m8.033.188c.053.144.239.775.414 1.403.266.96.305 1.148.244 1.186-.103.064-.819.222-1.547.342-.772.128-1.657.205-2.354.205l-.53.001-.335-1.221a33 33 0 0 1-.364-1.395l-.028-.174.493-.034c1.285-.089 3.054-.342 3.643-.522.246-.075.264-.065.364.209"/>
</svg>

<svg xmlns="http://www.w3.org/2000/svg" viewBox="0 0 30 28"><path d="M16.250 4.884 C 13.350 5.259,10.269 6.247,8.169 7.475 C 5.538 9.013,4.000 10.934,4.000 12.681 C 4.000 13.157,4.098 13.570,4.769 15.929 C 5.233 17.561,5.452 18.228,5.613 18.500 C 6.353 19.748,8.240 20.614,10.534 20.759 C 11.573 20.825,13.376 20.747,14.225 20.599 C 17.481 20.031,20.457 18.891,22.538 17.415 C 23.842 16.490,24.925 15.265,25.301 14.289 C 25.617 13.471,25.667 13.014,25.525 12.263 C 25.381 11.508,24.248 7.597,24.070 7.242 C 23.549 6.205,22.155 5.370,20.319 4.995 C 19.830 4.895,19.606 4.883,18.100 4.873 C 17.179 4.866,16.346 4.871,16.250 4.884 M23.818 11.637 C 24.075 12.535,24.132 12.927,24.055 13.271 C 23.977 13.621,23.719 14.136,23.433 14.514 C 23.144 14.897,22.654 15.450,22.604 15.450 C 22.582 15.450,22.391 14.842,22.179 14.100 L 21.793 12.749 21.959 12.613 C 22.300 12.333,22.774 11.861,23.164 11.411 C 23.386 11.156,23.584 10.965,23.605 10.986 C 23.625 11.007,23.721 11.300,23.818 11.637 M20.880 15.066 C 21.190 16.154,21.249 16.416,21.199 16.477 C 21.000 16.716,19.570 17.445,18.370 17.918 C 17.535 18.248,17.219 18.340,17.154 18.273 C 17.101 18.219,16.411 15.819,16.389 15.615 C 16.376 15.493,16.403 15.471,16.700 15.359 C 18.198 14.792,19.597 14.168,20.225 13.787 C 20.335 13.720,20.442 13.680,20.463 13.698 C 20.483 13.716,20.671 14.332,20.880 15.066 M6.906 15.975 C 7.203 16.071,7.745 16.209,8.111 16.281 C 8.476 16.354,8.780 16.417,8.786 16.422 C 8.802 16.435,9.217 17.882,9.397 18.557 L 9.546 19.111 9.323 19.077 C 9.098 19.044,8.440 18.831,8.078 18.675 C 7.621 18.479,7.156 18.107,6.920 17.750 C 6.836 17.622,6.300 15.952,6.300 15.817 C 6.300 15.783,6.374 15.803,6.906 15.975 M14.939 16.163 C 14.992 16.307,15.178 16.938,15.353 17.566 C 15.619 18.526,15.658 18.714,15.597 18.752 C 15.494 18.816,14.778 18.974,14.050 19.094 C 13.278 19.222,12.393 19.299,11.696 19.299 L 11.166 19.300 10.831 18.079 C 10.646 17.407,10.482 16.780,10.467 16.684 L 10.439 16.510 10.932 16.476 C 12.217 16.387,13.986 16.134,14.575 15.954 C 14.821 15.879,14.839 15.889,14.939 16.163 " stroke="none" fill-rule="evenodd" fill="black"></path></svg>
